X:16463
T:The Bearded Fiddler
R:jig
C:Ed Reavy
M:6/8
L:1/8
Z:Joe Reavy
N:Farley was a great tramp fiddler who roamed 
N:through Monaghan and Cavan on fair days. His 
N:daughter sold the family wares as he played 
N:to the delight of their customers. Ed recalled 
N:one day that Farley played so beautifully that 
N:the daughter threw her arms around him in a 
N:burst of spontaneous joy. Ed never forgot the 
N:wholesome feelings expressed there, nor did 
N:he fail to recognize the life-warming 
N:secrets shared by those who love the 
N:music of Ireland.
K:D
A/2G/2|FAd fAF|GBd gAG|FAd fAF|GEF GFE|FAd fAF|
GBd gag|fed edc|d3 d2:||f/2/g/2|afd Adf|gec Afg|
afd AGF|G3 GAG|FAd fAF|GBd gag|fed edc|d3 d2:||
